packages/components/src/components/icon/common/ic-poo-verified.svg

<svg width="96" height="116" viewBox="0 0 96 116" fill="none" xmlns="http://www.w3.org/2000/svg">
<rect width="80.0834" height="100.173" rx="4" fill="#C6E3E3"/>
<path d="M21.7231 32.8567C20.5218 34.0588 18.9202 34.76 17.0182 34.9603V37.5648H14.916V34.9603C13.1141 34.8601 11.4123 34.2591 10.0109 32.9568C8.90973 31.9551 8.00879 30.3524 8.00879 28.5492H11.5124C11.5124 29.551 12.013 30.3524 12.6136 30.9534C13.3143 31.5544 14.1152 31.8549 14.916 31.9551V26.2453C14.4155 26.1451 14.015 26.1451 13.5145 26.0449C10.4113 25.5441 8.50931 23.5406 8.50931 20.6356C8.50931 19.133 9.21004 17.8308 10.2111 16.829C11.3122 15.7271 12.9139 14.9258 14.8159 14.7254V12.0208H16.9181V14.9258C18.5197 15.1261 19.9212 15.7271 21.0223 16.7289C22.1235 17.8308 22.9243 19.2332 23.0244 20.8359H19.5208C19.5208 20.1347 19.1204 19.3334 18.6198 18.9327C18.2194 18.532 17.6188 18.2315 16.9181 18.0311V23.2401C17.2184 23.3403 17.6188 23.3403 17.9191 23.3403C20.8221 23.8411 23.2246 25.6442 23.2246 28.8498C23.3247 30.6529 22.624 31.9551 21.7231 32.8567ZM14.916 17.8308C14.1152 17.9309 13.4144 18.2315 12.8138 18.7323C12.3133 19.133 12.013 19.8342 12.013 20.5354C12.013 21.8377 12.8138 22.4387 14.015 22.6391C14.3154 22.7392 14.6157 22.7392 14.916 22.7392V17.8308ZM17.5187 26.7461L17.0182 26.646V31.9551C17.819 31.8549 18.5197 31.5544 19.0203 31.0536C19.5208 30.5527 19.8211 30.0518 19.8211 29.0501C19.8211 27.5475 18.7199 26.9465 17.5187 26.7461Z" fill="white"/>
<rect x="8.00879" y="46.0795" width="45.0469" height="4.00691" rx="2" fill="white"/>
<rect x="27.0283" y="30.0518" width="45.0469" height="4.00691" rx="2" fill="white"/>
<rect x="27.0283" y="18.0311" width="45.0469" height="4.00691" rx="2" fill="white"/>
<rect x="8.00879" y="58.1002" width="45.0469" height="4.00691" rx="2" fill="white"/>
<rect x="8.00879" y="70.1209" width="45.0469" height="4.00691" rx="2" fill="white"/>
<rect x="57.0596" y="46.0795" width="15.0156" height="4.00691" rx="2" fill="white"/>
<rect x="57.0596" y="58.1002" width="15.0156" height="4.00691" rx="2" fill="white"/>
<rect x="57.0596" y="70.1209" width="15.0156" height="4.00691" rx="2" fill="white"/>
<path d="M72.9905 116C85.6985 116 96.0005 105.703 96.0005 93C96.0005 80.2975 85.6985 70 72.9905 70C60.2824 70 49.9805 80.2975 49.9805 93C49.9805 105.703 60.2824 116 72.9905 116Z" fill="#4BB4B3"/>
<path d="M71.3802 100.38C71.1328 100.379 70.8931 100.295 70.7002 100.14L64.6402 95.14C64.1905 94.7598 64.1241 94.0912 64.4902 93.63C64.6701 93.4092 64.9306 93.2692 65.214 93.241C65.4974 93.2129 65.7804 93.2989 66.0002 93.48L71.2302 97.76L80.6802 86.15C80.9188 85.8454 81.3033 85.6935 81.6856 85.7525C82.068 85.8115 82.3887 86.0723 82.5244 86.4346C82.6601 86.7969 82.5897 87.2043 82.3402 87.5L72.2202 100C72.0383 100.222 71.7756 100.362 71.4902 100.39L71.3802 100.38Z" fill="white"/>
</svg>

<svg width="96" height="116" fill="none" xmlns="http://www.w3.org/2000/svg"><rect width="80.083" height="100.173" rx="4" fill="#C6E3E3"/><path d="M21.723 32.857c-1.201 1.202-2.803 1.903-4.705 2.103v2.605h-2.102V34.96c-1.802-.1-3.504-.7-4.905-2.003-1.101-1.002-2.002-2.605-2.002-4.408h3.503c0 1.002.501 1.803 1.102 2.404a4.3 4.3 0 0 0 2.302 1.002v-5.71c-.5-.1-.901-.1-1.402-.2-3.103-.5-5.005-2.504-5.005-5.41 0-1.502.701-2.804 1.702-3.806 1.101-1.102 2.703-1.903 4.605-2.104v-2.704h2.102v2.905c1.602.2 3.003.801 4.104 1.803 1.102 1.102 1.902 2.504 2.002 4.107h-3.503c0-.701-.4-1.503-.901-1.903-.4-.401-1.001-.701-1.702-.902v5.21c.3.1.7.1 1.001.1 2.903.5 5.306 2.303 5.306 5.509.1 1.803-.601 3.105-1.502 4.007ZM14.916 17.83c-.8.1-1.502.4-2.102.901-.5.401-.801 1.102-.801 1.803 0 1.303.8 1.904 2.002 2.104.3.1.6.1.901.1v-4.908Zm2.603 8.915-.5-.1v5.31c.8-.101 1.5-.402 2.001-.902.5-.501.801-1.002.801-2.004 0-1.503-1.101-2.104-2.302-2.304Z" fill="#fff"/><rect x="8.009" y="46.08" width="45.047" height="4.007" rx="2" fill="#fff"/><rect x="27.028" y="30.052" width="45.047" height="4.007" rx="2" fill="#fff"/><rect x="27.028" y="18.031" width="45.047" height="4.007" rx="2" fill="#fff"/><rect x="8.009" y="58.1" width="45.047" height="4.007" rx="2" fill="#fff"/><rect x="8.009" y="70.121" width="45.047" height="4.007" rx="2" fill="#fff"/><rect x="57.06" y="46.08" width="15.016" height="4.007" rx="2" fill="#fff"/><rect x="57.06" y="58.1" width="15.016" height="4.007" rx="2" fill="#fff"/><rect x="57.06" y="70.121" width="15.016" height="4.007" rx="2" fill="#fff"/><path d="M72.99 116C85.7 116 96 105.703 96 93S85.698 70 72.99 70c-12.708 0-23.01 10.297-23.01 23s10.302 23 23.01 23Z" fill="#4BB4B3"/><path d="M71.38 100.38a1.092 1.092 0 0 1-.68-.24l-6.06-5a1.09 1.09 0 0 1-.15-1.51 1.07 1.07 0 0 1 1.51-.15l5.23 4.28 9.45-11.61a1.07 1.07 0 1 1 1.66 1.35L72.22 100a1.08 1.08 0 0 1-.73.39l-.11-.01Z" fill="#fff"/></svg>
